X:1037
T:Munro's Rant.
M:C|
L:1/8
Q:1/2=104
I: :: :: :: :|
Z:Jack Campin * www.campin.me.uk * 2009
K:G
G2 B>G d>GB>G|A2 B>d e>de>g|G2 B>G d>GB>G|A>BA>G E2D>E:|
g>ag>e g>dd>g|e>fg>a b>ef>g|g>ag>e d>Bg>e|dB`AG  E2D>E:|
G>dB>d G>dB>d|A>ec>e A>ec>e|G>dB>d G>dB>G|A>BA>G E2D>E:|
g>ag>e g>dd>g|e>fg>a b>ee>f|g>ag>e d>Bg>e|d>BA>G E2D>E:|

